;FLAVOR:Marlin
;TIME:3456
;Filament used: 0.649097m
;Layer height: 0.1
;MINX:96.89
;MINY:89.54
;MINZ:0.1
;MAXX:133.11
;MAXY:143.46
;MAXZ:3
;TARGET_MACHINE.NAME:Creality Ender-3 v2 Neo
;Generated with Cura_SteamEngine 5.8.1
M104 S200
M105
M109 S200
M82 ;absolute extrusion mode
G92 E0 ;Reset Extruder
G28 ;Home
G1 Z2.0 F3000 ;Move Z Axis up
G1 X10.1 Y20 Z0.28 F5000.0 ;Move to start position
G92 E0 ;Reset Extruder
G1 Z2.0 F3000 ;Move Z Axis up
G92 E0
G92 E0
;LAYER_COUNT:30
;LAYER:0
M107
G0 F6000 X99.496 Y93.048 Z0.1
;TYPE:SKIRT
G1 F1200 X100.152 Y92.371 E0.00941
G1 X100.833 Y91.783 E0.01838
G1 X101.598 Y91.232 E0.02779
G1 X102.372 Y90.774 E0.03676
G1 X103.222 Y90.368 E0.04616
G1 X104.065 Y90.054 E0.05514
G1 X104.973 Y89.805 E0.06453
G1 X105.882 Y89.641 E0.07375
G1 X106.97 Y89.553 E0.08464
G1 X107.575 Y89.54 E0.09068
G1 X122.046 Y89.54 E0.23507
G1 X122.9 Y89.551 E0.24359
G1 X123.798 Y89.604 E0.25257
G1 X124.73 Y89.743 E0.26197
G1 X125.625 Y89.96 E0.27116
G1 X126.498 Y90.255 E0.28036
G1 X127.321 Y90.617 E0.28933
G1 X128.146 Y91.072 E0.29873
G1 X128.892 Y91.574 E0.3077
G1 X129.624 Y92.168 E0.31711
G1 X130.285 Y92.809 E0.32629
G1 X130.872 Y93.49 E0.33527
G1 X131.422 Y94.256 E0.34467
G1 X131.88 Y95.03 E0.35365
G1 X132.285 Y95.88 E0.36304
G1 X132.606 Y96.744 E0.37224
G1 X132.843 Y97.612 E0.38122
G1 X133.01 Y98.541 E0.39064
G1 X133.097 Y99.62 E0.40144
G1 X133.11 Y100.23 E0.40753
G1 X133.109 Y132.492 E0.72944
G1 X133.1 Y133.23 E0.7368
G1 X133.049 Y134.128 E0.74578
G1 X132.911 Y135.06 E0.75518
G1 X132.697 Y135.955 E0.76436
G1 X132.411 Y136.808 E0.77334
G1 X132.043 Y137.652 E0.78252
G1 X131.589 Y138.479 E0.79194
G1 X131.076 Y139.243 E0.80112
G1 X130.497 Y139.959 E0.81031
G1 X129.872 Y140.606 E0.81928
G1 X129.159 Y141.223 E0.82869
G1 X128.43 Y141.749 E0.83766
G1 X127.639 Y142.22 E0.84685
G1 X126.789 Y142.627 E0.85625
G1 X125.947 Y142.943 E0.86522
G1 X125.038 Y143.193 E0.87463
G1 X124.13 Y143.357 E0.88384
G1 X123.03 Y143.447 E0.89485
G1 X122.42 Y143.46 E0.90094
G1 X107.824 Y143.459 E1.04658
G1 X107.115 Y143.45 E1.05365
G1 X106.216 Y143.399 E1.06264
G1 X105.284 Y143.26 E1.07204
G1 X104.389 Y143.045 E1.08122
G1 X103.517 Y142.751 E1.09041
G1 X102.674 Y142.381 E1.09959
G1 X101.885 Y141.949 E1.10857
G1 X101.102 Y141.423 E1.11798
G1 X100.387 Y140.844 E1.12716
G1 X99.74 Y140.219 E1.13614
G1 X99.137 Y139.522 E1.14533
G1 X98.598 Y138.775 E1.15452
G1 X98.117 Y137.965 E1.16392
G1 X97.721 Y137.134 E1.17311
G1 X97.406 Y136.292 E1.18208
G1 X97.156 Y135.383 E1.19149
G1 X96.992 Y134.474 E1.2007
G1 X96.903 Y133.369 E1.21176
G1 X96.89 Y132.758 E1.21786
G1 X96.891 Y100.434 E1.54039
G1 X96.9 Y99.758 E1.54714
G1 X96.952 Y98.86 E1.55611
G1 X97.091 Y97.928 E1.56551
G1 X97.307 Y97.032 E1.57471
G1 X97.601 Y96.16 E1.58389
G1 X97.963 Y95.336 E1.59287
G1 X98.417 Y94.511 E1.60227
G1 X98.93 Y93.747 E1.61145
G1 X99.496 Y93.048 E1.62043
G0 F6000 X99.683 Y93.199
G1 F1200 X100.309 Y92.553 E1.6294
G1 X100.99 Y91.965 E1.63838
G1 X101.72 Y91.439 E1.64736
G1 X102.494 Y90.981 E1.65633
G1 X103.306 Y90.593 E1.66531
G1 X104.149 Y90.279 E1.67429
G1 X105.016 Y90.041 E1.68326
G1 X105.901 Y89.88 E1.69223
G1 X106.975 Y89.793 E1.70298
G1 X107.58 Y89.78 E1.70902
G1 X122.043 Y89.78 E1.85334
G1 X122.886 Y89.791 E1.86175
G1 X123.784 Y89.844 E1.87072
G1 X124.674 Y89.976 E1.8797
G1 X125.548 Y90.187 E1.88867
G1 X126.401 Y90.475 E1.89766
G1 X127.224 Y90.837 E1.90663
G1 X128.012 Y91.271 E1.9156
G1 X128.758 Y91.773 E1.92458
G1 X129.457 Y92.34 E1.93356
G1 X130.103 Y92.966 E1.94253
G1 X130.69 Y93.647 E1.9515
G1 X131.215 Y94.378 E1.96048
G1 X131.673 Y95.152 E1.96946
G1 X132.06 Y95.964 E1.97843
G1 X132.374 Y96.807 E1.98741
G1 X132.611 Y97.675 E1.99639
G1 X132.771 Y98.56 E2.00536
G1 X132.857 Y99.625 E2.01602
G1 X132.87 Y100.23 E2.02206
G1 X132.869 Y132.489 E2.34394
G1 X132.86 Y133.216 E2.3512
G1 X132.809 Y134.114 E2.36017
G1 X132.678 Y135.004 E2.36915
G1 X132.469 Y135.879 E2.37812
G1 X132.183 Y136.732 E2.3871
G1 X131.823 Y137.556 E2.39607
G1 X131.39 Y138.345 E2.40505
G1 X130.889 Y139.092 E2.41403
G1 X130.324 Y139.792 E2.423
G1 X129.699 Y140.439 E2.43198
G1 X129.019 Y141.028 E2.44096
G1 X128.29 Y141.554 E2.44993
G1 X127.516 Y142.014 E2.45891
G1 X126.705 Y142.402 E2.46788
G1 X125.863 Y142.718 E2.47685
G1 X124.995 Y142.957 E2.48584
G1 X124.11 Y143.118 E2.49481
G1 X123.025 Y143.207 E2.50567
G1 X122.42 Y143.22 E2.51171
G1 X107.827 Y143.219 E2.65732
G1 X107.129 Y143.21 E2.66429
G1 X106.23 Y143.159 E2.67327
G1 X105.34 Y143.027 E2.68225
G1 X104.466 Y142.818 E2.69122
G1 X103.613 Y142.531 E2.7002
G1 X102.789 Y142.17 E2.70917
G1 X102 Y141.738 E2.71815
G1 X101.253 Y141.236 E2.72713
G1 X100.554 Y140.671 E2.7361
G1 X99.907 Y140.046 E2.74507
G1 X99.319 Y139.365 E2.75405
G1 X98.793 Y138.635 E2.76303
G1 X98.334 Y137.862 E2.772
G1 X97.946 Y137.05 E2.78098
G1 X97.631 Y136.208 E2.78995
G1 X97.392 Y135.34 E2.79893
G1 X97.231 Y134.455 E2.80791
G1 X97.143 Y133.364 E2.81883
G1 X97.13 Y132.758 E2.82488
G1 X97.131 Y100.437 E3.14738
G1 X97.14 Y99.772 E3.15401
G1 X97.192 Y98.874 E3.16299
G1 X97.324 Y97.984 E3.17197
G1 X97.534 Y97.109 E3.18094
G1 X97.821 Y96.257 E3.18992
G1 X98.183 Y95.433 E3.1989
G1 X98.616 Y94.645 E3.20787
G1 X99.117 Y93.898 E3.21684
G1 X99.683 Y93.199 E3.22582
;MESH:??????????_3_2.STL
G0 F6000 X106.585 Y100.214
G0 X115 Y132.98
;TYPE:WALL-OUTER
G1 F750 X122.628 Y132.98 E3.30193
G1 X122.628 Y100.02 E3.63081
G1 X107.368 Y100.02 E3.78307
G1 X107.368 Y132.98 E4.11195
G1 X115 Y132.98 E4.1881
G0 F6000 X115 Y132.7
G0 X108.02 Y132.33
G0 X107.608 Y132.583
;TYPE:FILL
G1 F1200 X107.765 Y132.74 E4.19031
G1 X107.608 Y132.74 E4.19188
G1 X107.608 Y132.3 E4.19627
G1 X108.048 Y132.74 E4.20248
G1 X108.331 Y132.74 E4.2053
G1 X107.608 Y132.018 E4.2155
G1 X107.608 Y131.735 E4.21832
G1 X108.614 Y132.74 E4.23251
G1 X108.897 Y132.74 E4.23534
G1 X107.608 Y131.452 E4.25352
G1 X107.608 Y131.169 E4.25634
G1 X109.179 Y132.74 E4.27851
G1 X109.462 Y132.74 E4.28133
G1 X107.608 Y130.886 E4.3075
G1 X107.608 Y130.603 E4.31032
G1 X109.745 Y132.74 E4.34047
G1 X110.028 Y132.74 E4.3433
G1 X107.608 Y130.32 E4.37745
G1 X107.608 Y130.038 E4.38026
G1 X110.311 Y132.74 E4.4184
G1 X110.594 Y132.74 E4.42122
G1 X107.608 Y129.755 E4.46335
G1 X107.608 Y129.472 E4.46617
G1 X110.876 Y132.74 E4.51229
G1 X111.159 Y132.74 E4.51511
G1 X107.608 Y129.189 E4.56522
G1 X107.608 Y128.906 E4.56804
G1 X111.442 Y132.74 E4.62215
G1 X111.725 Y132.74 E4.62497
G1 X107.608 Y128.623 E4.68306
G1 X107.608 Y128.341 E4.68588
G1 X112.008 Y132.74 E4.74796
G1 X112.291 Y132.74 E4.75078
G1 X107.608 Y128.058 E4.81686
G1 X107.608 Y127.775 E4.81968
G1 X112.574 Y132.74 E4.88975
G1 X112.856 Y132.74 E4.89256
G1 X107.608 Y127.492 E4.96662
G1 X107.608 Y127.209 E4.96944
G1 X113.139 Y132.74 E5.04749
G1 X113.422 Y132.74 E5.05032
G1 X107.608 Y126.926 E5.13236
G1 X107.608 Y126.644 E5.13517
G1 X113.705 Y132.74 E5.2212
G1 X113.988 Y132.74 E5.22402
G1 X107.608 Y126.361 E5.31404
G1 X107.608 Y126.078 E5.31687
G1 X114.271 Y132.74 E5.41088
G1 X114.553 Y132.74 E5.4137
G1 X107.608 Y125.795 E5.5117
G1 X107.608 Y125.512 E5.51452
G1 X114.836 Y132.74 E5.61652
G1 X115.119 Y132.74 E5.61934
G1 X107.608 Y125.229 E5.72533
G1 X107.608 Y124.946 E5.72815
G1 X115.402 Y132.74 E5.83814
G1 X115.685 Y132.74 E5.84096
G1 X107.608 Y124.664 E5.95493
G1 X107.608 Y124.381 E5.95775
G1 X115.968 Y132.74 E6.07571
G1 X116.25 Y132.74 E6.07853
G1 X107.608 Y124.098 E6.20047
G1 X107.608 Y123.815 E6.2033
G1 X116.533 Y132.74 E6.32924
G1 X116.816 Y132.74 E6.33206
G1 X107.608 Y123.532 E6.462
G1 X107.608 Y123.249 E6.46482
G1 X117.099 Y132.74 E6.59875
G1 X117.382 Y132.74 E6.60157
G1 X107.608 Y122.967 E6.73949
G1 X107.608 Y122.684 E6.74231
G1 X117.665 Y132.74 E6.88422
G1 X117.948 Y132.74 E6.88704
G1 X107.608 Y122.401 E7.03295
G1 X107.608 Y122.118 E7.03577
G1 X118.23 Y132.74 E7.18566
G1 X118.513 Y132.74 E7.18848
G1 X107.608 Y121.835 E7.34236
G1 X107.608 Y121.552 E7.34519
G1 X118.796 Y132.74 E7.50306
G1 X119.079 Y132.74 E7.50589
G1 X107.608 Y121.27 E7.66775
G1 X107.608 Y120.987 E7.67057
G1 X119.362 Y132.74 E7.83642
G1 X119.645 Y132.74 E7.83925
G1 X107.608 Y120.704 E8.0091
G1 X107.608 Y120.421 E8.01192
G1 X119.927 Y132.74 E8.18575
G1 X120.21 Y132.74 E8.18858
G1 X107.608 Y120.138 E8.36641
G1 X107.608 Y119.855 E8.36923
G1 X120.493 Y132.74 E8.55105
G1 X120.776 Y132.74 E8.55387
G1 X107.608 Y119.572 E8.73969
G1 X107.608 Y119.29 E8.7425
G1 X121.059 Y132.74 E8.9323
G1 X121.342 Y132.74 E8.93513
G1 X107.608 Y119.007 E9.12892
G1 X107.608 Y118.724 E9.13175
G1 X121.624 Y132.74 E9.32953
G1 X121.907 Y132.74 E9.33235
G1 X107.608 Y118.441 E9.53413
G1 X107.608 Y118.158 E9.53695
G1 X122.19 Y132.74 E9.74272
G1 X122.388 Y132.74 E9.74469
G1 X122.388 Y132.655 E9.74554
G1 X107.608 Y117.875 E9.9541
G1 X107.608 Y117.593 E9.95692
G1 X122.388 Y132.373 E10.16548
G1 X122.388 Y132.09 E10.1683
G1 X107.608 Y117.31 E10.37686
G1 X107.608 Y117.027 E10.37969
G1 X122.388 Y131.807 E10.58825
G1 X122.388 Y131.524 E10.59107
G1 X107.608 Y116.744 E10.79964
G1 X107.608 Y116.461 E10.80246
G1 X122.388 Y131.241 E11.01102
G1 X122.388 Y130.958 E11.01384
G1 X107.608 Y116.178 E11.22241
G1 X107.608 Y115.896 E11.22522
G1 X122.388 Y130.675 E11.43377
G1 X122.388 Y130.393 E11.43659
G1 X107.608 Y115.613 E11.64515
G1 X107.608 Y115.33 E11.64797
G1 X122.388 Y130.11 E11.85654
G1 X122.388 Y129.827 E11.85936
G1 X107.608 Y115.047 E12.06792
G1 X107.608 Y114.764 E12.07075
G1 X122.388 Y129.544 E12.27931
G1 X122.388 Y129.261 E12.28213
G1 X107.608 Y114.481 E12.49069
G1 X107.608 Y114.198 E12.49352
G1 X122.388 Y128.978 E12.70208
G1 X122.388 Y128.696 E12.70489
G1 X107.608 Y113.916 E12.91345
G1 X107.608 Y113.633 E12.91628
G1 X122.388 Y128.413 E13.12484
G1 X122.388 Y128.13 E13.12766
G1 X107.608 Y113.35 E13.33622
G1 X107.608 Y113.067 E13.33905
G1 X122.388 Y127.847 E13.54761
G1 X122.388 Y127.564 E13.55043
G1 X107.608 Y112.784 E13.759
G1 X107.608 Y112.501 E13.76182
G1 X122.388 Y127.281 E13.97038
G1 X122.388 Y126.998 E13.97321
G1 X107.608 Y112.219 E14.18176
G1 X107.608 Y111.936 E14.18458
G1 X122.388 Y126.716 E14.39315
G1 X122.388 Y126.433 E14.39597
G1 X107.608 Y111.653 E14.60453
G1 X107.608 Y111.37 E14.60735
G1 X122.388 Y126.15 E14.81592
G1 X122.388 Y125.867 E14.81874
G1 X107.608 Y111.087 E15.0273
G1 X107.608 Y110.804 E15.03013
G1 X122.388 Y125.584 E15.23869
G1 X122.388 Y125.301 E15.24151
G1 X107.608 Y110.521 E15.45007
G1 X107.608 Y110.239 E15.45289
G1 X122.388 Y125.019 E15.66145
G1 X122.388 Y124.736 E15.66427
G1 X107.608 Y109.956 E15.87283
G1 X107.608 Y109.673 E15.87566
G1 X122.388 Y124.453 E16.08422
G1 X122.388 Y124.17 E16.08704
G1 X107.608 Y109.39 E16.29561
G1 X107.608 Y109.107 E16.29843
G1 X122.388 Y123.887 E16.50699
G1 X122.388 Y123.604 E16.50981
G1 X107.608 Y108.824 E16.71838
G1 X107.608 Y108.542 E16.72119
G1 X122.388 Y123.322 E16.92975
G1 X122.388 Y123.039 E16.93258
G1 X107.608 Y108.259 E17.14114
G1 X107.608 Y107.976 E17.14396
G1 X122.388 Y122.756 E17.35252
G1 X122.388 Y122.473 E17.35535
G1 X107.608 Y107.693 E17.56391
G1 X107.608 Y107.41 E17.56673
G1 X122.388 Y122.19 E17.77529
G1 X122.388 Y121.907 E17.77812
G1 X107.608 Y107.127 E17.98668
G1 X107.608 Y106.845 E17.98949
G1 X122.388 Y121.624 E18.19805
G1 X122.388 Y121.342 E18.20086
G1 X107.608 Y106.562 E18.40942
G1 X107.608 Y106.279 E18.41225
G1 X122.388 Y121.059 E18.62081
G1 X122.388 Y120.776 E18.62363
G1 X107.608 Y105.996 E18.83219
G1 X107.608 Y105.713 E18.83502
G1 X122.388 Y120.493 E19.04358
G1 X122.388 Y120.21 E19.0464
G1 X107.608 Y105.43 E19.25497
G1 X107.608 Y105.147 E19.25779
G1 X122.388 Y119.927 E19.46635
G1 X122.388 Y119.645 E19.46917
G1 X107.608 Y104.865 E19.67773
G1 X107.608 Y104.582 E19.68055
G1 X122.388 Y119.362 E19.88911
G1 X122.388 Y119.079 E19.89194
G1 X107.608 Y104.299 E20.1005
G1 X107.608 Y104.016 E20.10332
G1 X122.388 Y118.796 E20.31188
G1 X122.388 Y118.513 E20.31471
G1 X107.608 Y103.733 E20.52327
G1 X107.608 Y103.45 E20.52609
G1 X122.388 Y118.23 E20.73465
G1 X122.388 Y117.948 E20.73747
G1 X107.608 Y103.168 E20.94603
G1 X107.608 Y102.885 E20.94885
G1 X122.388 Y117.665 E21.15742
G1 X122.388 Y117.382 E21.16024
G1 X107.608 Y102.602 E21.3688
G1 X107.608 Y102.319 E21.37163
G1 X122.388 Y117.099 E21.58019
G1 X122.388 Y116.816 E21.58301
G1 X107.608 Y102.036 E21.79157
G1 X107.608 Y101.753 E21.7944
G1 X122.388 Y116.533 E22.00296
G1 X122.388 Y116.25 E22.00578
G1 X107.608 Y101.471 E22.21434
G1 X107.608 Y101.188 E22.21716
G1 X122.388 Y115.968 E22.42572
G1 X122.388 Y115.685 E22.42855
G1 X107.608 Y100.905 E22.63711
G1 X107.608 Y100.622 E22.63993
G1 X122.388 Y115.402 E22.84849
G1 X122.388 Y115.119 E22.85132
G1 X107.608 Y100.339 E23.05988
G1 X107.608 Y100.26 E23.06067
G1 X107.812 Y100.26 E23.0627
G1 X122.388 Y114.836 E23.26839
G1 X122.388 Y114.553 E23.27121
G1 X108.095 Y100.26 E23.4729
G1 X108.378 Y100.26 E23.47572
G1 X122.388 Y114.271 E23.67343
G1 X122.388 Y113.988 E23.67625
G1 X108.66 Y100.26 E23.86997
G1 X108.943 Y100.26 E23.87279
G1 X122.388 Y113.705 E24.06251
G1 X122.388 Y113.422 E24.06534
G1 X109.226 Y100.26 E24.25107
G1 X109.509 Y100.26 E24.25389
G1 X122.388 Y113.139 E24.43563
G1 X122.388 Y112.856 E24.43845
G1 X109.792 Y100.26 E24.6162
G1 X110.075 Y100.26 E24.61902
G1 X122.388 Y112.574 E24.79278
G1 X122.388 Y112.291 E24.7956
G1 X110.357 Y100.26 E24.96537
G1 X110.64 Y100.26 E24.96819
G1 X122.388 Y112.008 E25.13397
G1 X122.388 Y111.725 E25.13679
G1 X110.923 Y100.26 E25.29858
G1 X111.206 Y100.26 E25.3014
G1 X122.388 Y111.442 E25.45919
G1 X122.388 Y111.159 E25.46202
G1 X111.489 Y100.26 E25.61581
G1 X111.772 Y100.26 E25.61864
G1 X122.388 Y110.876 E25.76844
G1 X122.388 Y110.594 E25.77125
G1 X112.055 Y100.26 E25.91707
G1 X112.337 Y100.26 E25.91988
G1 X122.388 Y110.311 E26.06171
G1 X122.388 Y110.028 E26.06454
G1 X112.62 Y100.26 E26.20238
G1 X112.903 Y100.26 E26.2052
G1 X122.388 Y109.745 E26.33904
G1 X122.388 Y109.462 E26.34187
G1 X113.186 Y100.26 E26.47172
G1 X113.469 Y100.26 E26.47454
G1 X122.388 Y109.179 E26.6004
G1 X122.388 Y108.897 E26.60321
G1 X113.752 Y100.26 E26.72508
G1 X114.034 Y100.26 E26.7279
G1 X122.388 Y108.614 E26.84578
G1 X122.388 Y108.331 E26.8486
G1 X114.317 Y100.26 E26.96249
G1 X114.6 Y100.26 E26.96532
G1 X122.388 Y108.048 E27.07521
G1 X122.388 Y107.765 E27.07804
G1 X114.883 Y100.26 E27.18394
G1 X115.166 Y100.26 E27.18677
G1 X122.388 Y107.482 E27.28868
G1 X122.388 Y107.2 E27.29149
G1 X115.449 Y100.26 E27.38941
G1 X115.731 Y100.26 E27.39223
G1 X122.388 Y106.917 E27.48616
G1 X122.388 Y106.634 E27.48899
G1 X116.014 Y100.26 E27.57893
G1 X116.297 Y100.26 E27.58176
G1 X122.388 Y106.351 E27.66771
G1 X122.388 Y106.068 E27.67053
G1 X116.58 Y100.26 E27.75249
G1 X116.863 Y100.26 E27.75531
G1 X122.388 Y105.785 E27.83328
G1 X122.388 Y105.502 E27.8361
G1 X117.146 Y100.26 E27.91007
G1 X117.429 Y100.26 E27.91289
G1 X122.388 Y105.22 E27.98288
G1 X122.388 Y104.937 E27.9857
G1 X117.711 Y100.26 E28.0517
G1 X117.994 Y100.26 E28.05452
G1 X122.388 Y104.654 E28.11653
G1 X122.388 Y104.371 E28.11935
G1 X118.277 Y100.26 E28.17736
G1 X118.56 Y100.26 E28.18018
G1 X122.388 Y104.088 E28.2342
G1 X122.388 Y103.805 E28.23703
G1 X118.843 Y100.26 E28.28705
G1 X119.126 Y100.26 E28.28987
G1 X122.388 Y103.523 E28.33591
G1 X122.388 Y103.24 E28.33873
G1 X119.408 Y100.26 E28.38079
G1 X119.691 Y100.26 E28.38361
G1 X122.388 Y102.957 E28.42167
G1 X122.388 Y102.674 E28.42449
G1 X119.974 Y100.26 E28.45855
G1 X120.257 Y100.26 E28.46138
G1 X122.388 Y102.391 E28.49145
G1 X122.388 Y102.108 E28.49427
G1 X120.54 Y100.26 E28.52035
G1 X120.823 Y100.26 E28.52317
G1 X122.388 Y101.825 E28.54526
G1 X122.388 Y101.543 E28.54807
G1 X121.105 Y100.26 E28.56618
G1 X121.388 Y100.26 E28.569
G1 X122.388 Y101.26 E28.58311
G1 X122.388 Y100.977 E28.58593
G1 X121.671 Y100.26 E28.59605
G1 X121.954 Y100.26 E28.59888
G1 X122.388 Y100.694 E28.605
G1 X122.388 Y100.411 E28.60782
G1 X122.237 Y100.26 E28.60995
G1 X122.388 Y100.26 E28.61146
G0 F6000 X121.81 Y100.769
;MESH:NONMESH
G0 F300 X121.81 Y100.769 Z0.2
G0 F6000 X115 Y132.7
G0 X115 Y133
;TIME_ELAPSED:153.570864
;LAYER:1
M106 S85
;TYPE:WALL-OUTER
;MESH:??????????_3_2.STL
G1 F750 X122.648 Y133 E28.67506
G1 X122.648 Y100 E28.94945
G1 X107.348 Y100 E29.07667
G1 X107.348 Y133 E29.35107
G1 X115 Y133 E29.41469
G0 F7500 X115 Y132.7
G0 X122.175 Y132.7
